X:224
T:Corydon
C:J.E.Pepusch, 1667-1752
L:1/8
M:6/8
R:Jig
S:Colin Hume's website,  colinhume.com  - chords can also be printed below the stave.
Q:3/8=112
%%MIDI chordname dim 0 3 6 9
%%MIDI ratio 3 1
K:Cm
P:A
g | "Cm"c2=B "G7"c2d | "Cm"e2d c2d | "Cm"e2d "(Ab)"e2f |\
"Eb"g2f "Cm"e2g | "Fm"f2e "D7"d2c | "G"=B3 z2g | "Fm"_aga "Fdim"dfa |
"Cm"gfg ceg | "G7"fef =Bdf | "Cm"efd edc | "Fm"_a2g f2e |\
"G7"d2=b "Cm"c'3- | "Fm"c'd'c' "G7"gc'=b | "Cm"c'ge c2 ||
P:B
|: g | "C"=e>fg "C7"c>de | "Fm"f>g"C"=e "Fm"f2_e | "Bb"d>ef "Bb7"B>cd | "Eb"e>f"Bb"d "Eb"e2d |
"Cm"c>de "(Ab)"d>ec | "G"=B2d "G7"g2f | "Cm"edc "G7"Gc=B | "Cm"c3- c2 :|

